X:114
T:In Bodmin Town - Nichols
%%VWML:SBG-1-2-369-0
F:http://www.vwml.org/record/SBG/1/2/369
Z:Original Sibelius transcriptions by M. & S. Graebe
M:4/4
I:linebreak $
K:G
V:1 treble nm="P1"
V:1
 D | G/A/ B/c/ d d | e d/c/ (c/B/) d | B A/G/ G/B/ d/e/ | e d A d |$ B A/G/ G/B/ d/g/ | e c d e | %7
 g g g e/c/ | B A G x | %9

